apex/img/safety-icon-2.svg

<svg width="60" height="70" viewBox="0 0 60 70" fill="none" xmlns="http://www.w3.org/2000/svg">
<path d="M57.3766 11.3348L30.5797 0.209026C29.9085 -0.0696069 29.1539 -0.0697436 28.4828 0.209026L1.68588 11.3348C0.665274 11.7586 0 12.755 0 13.8601V27.385C0 46.0079 11.2559 62.7596 28.4979 69.7972C29.1602 70.0675 29.9022 70.0675 30.5646 69.7972C47.8063 62.7598 59.0625 46.008 59.0625 27.385V13.8601C59.0625 12.755 58.3974 11.7586 57.3766 11.3348ZM53.5938 27.385C53.5938 43.2164 44.2969 57.7902 29.5312 64.2955C15.1602 57.964 5.46875 43.6454 5.46875 27.385V15.6856L29.5312 5.695L53.5938 15.6856V27.385ZM26.5089 36.6018L38.2618 24.849C39.3296 23.7813 41.0609 23.7811 42.1288 24.849C43.1967 25.9169 43.1966 27.6482 42.1287 28.716L28.4424 42.4022C27.3744 43.4703 25.6431 43.4699 24.5755 42.4022L16.9337 34.7605C15.8658 33.6925 15.8658 31.9613 16.9337 30.8935C18.0016 29.8257 19.7329 29.8256 20.8007 30.8935L26.5089 36.6018Z" fill="#E5A132"/>
</svg>

<svg width="60" height="70" fill="none" xmlns="http://www.w3.org/2000/svg"><path d="M57.377 11.335L30.58.209a2.734 2.734 0 00-2.097 0L1.686 11.335A2.734 2.734 0 000 13.86v13.525a45.792 45.792 0 0028.498 42.412c.662.27 1.404.27 2.067 0a45.792 45.792 0 0028.497-42.412V13.86a2.734 2.734 0 00-1.685-2.525zm-3.783 16.05c0 15.831-9.297 30.405-24.063 36.91-14.37-6.331-24.062-20.65-24.062-36.91v-11.7l24.062-9.99 24.063 9.99v11.7zm-27.085 9.217l11.753-11.753a2.734 2.734 0 013.867 3.867L28.442 42.402a2.734 2.734 0 01-3.866 0l-7.642-7.642a2.734 2.734 0 113.867-3.866l5.708 5.708z" fill="#E5A132"/></svg>
